<?xml version="1.0" encoding="UTF-8"?>
<map version="1.10" tiledversion="1.11.0" orientation="orthogonal" renderorder="right-down" width="20" height="15" tilewidth="32" tileheight="32" infinite="0" nextlayerid="2" nextobjectid="1">
 <tileset firstgid="1" name="basic_tiles" tilewidth="32" tileheight="32" tilecount="4" columns="2">
  <image source="tileset.png" width="64" height="64"/>
 </tileset>
 <layer id="1" name="Ground" width="20" height="15">
  <data encoding="csv">
1,1,1,1,1,1,1,1,1,1,1,1,1,1,1,1,1,1,1,1,
1,2,2,2,2,2,2,2,2,2,2,2,2,2,2,2,2,2,2,1,
1,2,2,2,2,2,2,2,2,2,2,2,2,2,2,2,2,2,2,1,
1,2,2,3,3,3,3,2,2,2,2,2,2,3,3,3,3,2,2,1,
1,2,2,3,4,4,3,2,2,2,2,2,2,3,4,4,3,2,2,1,
1,2,2,3,4,4,3,2,2,2,2,2,2,3,4,4,3,2,2,1,
1,2,2,3,3,3,3,2,2,2,2,2,2,3,3,3,3,2,2,1,
1,2,2,2,2,2,2,2,2,2,2,2,2,2,2,2,2,2,2,1,
1,2,2,2,2,2,2,2,2,2,2,2,2,2,2,2,2,2,2,1,
1,2,2,3,3,3,3,2,2,2,2,2,2,3,3,3,3,2,2,1,
1,2,2,3,4,4,3,2,2,2,2,2,2,3,4,4,3,2,2,1,
1,2,2,3,4,4,3,2,2,2,2,2,2,3,4,4,3,2,2,1,
1,2,2,3,3,3,3,2,2,2,2,2,2,3,3,3,3,2,2,1,
1,2,2,2,2,2,2,2,2,2,2,2,2,2,2,2,2,2,2,1,
1,1,1,1,1,1,1,1,1,1,1,1,1,1,1,1,1,1,1,1
</data>
 </layer>
</map>
